public/img/note.svg

<svg height="24" viewBox="0 0 24 24" width="24" xmlns="http://www.w3.org/2000/svg"><path d="m5.67 19.47h12.62v-14.94h-9.12a.36.36 0 0 0 -.23.13c-1.11 1.11-2.13 2.34-3.19 3.47a.45.45 0 0 0 -.1.29zm13.87-17.47a1.28 1.28 0 0 1 1.32 1.23v17.5a1.27 1.27 0 0 1 -1.26 1.27h-15.19a1.28 1.28 0 0 1 -1.27-1.27v-12.73a1.67 1.67 0 0 1 .5-1.27l3.8-4.16a1.53 1.53 0 0 1 1.2-.57zm-11.36 8.8a1 1 0 0 1 0-2h1.72v-1.8a1 1 0 1 1 2 0v2.78a1 1 0 0 1 -1 1h-2.72z" fill="#41c9b4"/></svg>

<svg id="e59c669f-65aa-4a3c-a81a-034397402b7f" data-name="Layer 1" xmlns="http://www.w3.org/2000/svg" width="24" height="24" viewBox="0 0 24 24">
  <defs>
    <style>
      .ba4bf8a7-ec57-4bad-a322-c09912143ec9 {
        fill: #41c9b4;
      }
    </style>
  </defs>
  <path class="ba4bf8a7-ec57-4bad-a322-c09912143ec9" d="M5.67,19.47H18.29V4.53H9.17a.36.36,0,0,0-.23.13C7.83,5.77,6.81,7,5.75,8.13a.45.45,0,0,0-.1.29ZM19.54,2a1.28,1.28,0,0,1,1.32,1.23v17.5A1.27,1.27,0,0,1,19.6,22H4.41a1.28,1.28,0,0,1-1.27-1.27V8a1.67,1.67,0,0,1,.5-1.27l3.8-4.16A1.53,1.53,0,0,1,8.64,2h10.9ZM8.18,10.8a1,1,0,0,1,0-2H9.9V7a1,1,0,1,1,2,0h0V9.78a1,1,0,0,1-1,1H8.18Z"/>
</svg>
